icons/outline/matrix.svg

<!--
category: Math
tags: [grid, array, system, structure, arrangement, schema, chart, layout, framework]
unicode: "100bc"
version: "3.24"
-->
<svg
  xmlns="http://www.w3.org/2000/svg"
  width="24"
  height="24"
  viewBox="0 0 24 24"
  fill="none"
  stroke="currentColor"
  stroke-width="2"
  stroke-linecap="round"
  stroke-linejoin="round"
>
  <path d="M8 16h.013m3.997 0h.005m4 0h.005m-.005 -4h.005m-8.01 0h.005m3.995 0h.005m4.005 -4h.005m-8.01 0h.005m3.995 0h.005m-5.02 -4h-1a2 2 0 0 0 -2 2v12a2 2 0 0 0 2 2h1m10 -16h1a2 2 0 0 1 2 2v12a2 2 0 0 1 -2 2h-1" />
</svg>

<!--
category: Math
tags: [grid, array, system, structure, arrangement, schema, chart, layout, framework]
unicode: "100bc"
version: "3.24"
-->
<svg
  xmlns="http://www.w3.org/2000/svg"
  width="24"
  height="24"
  viewBox="0 0 24 24"
  fill="none"
  stroke="currentColor"
  stroke-width="2"
  stroke-linecap="round"
  stroke-linejoin="round"
>
    <path d="M8 16h.013M12.01 16h.005M16.015 16h.005M16.015 12h.005M8.01 12h.005M12.01 12h.005M16.02 8h.005M8.015 8h.005M12.015 8h.005M7 4h-1a2 2 0 0 0 -2 2v12a2 2 0 0 0 2 2h1M17 4h1a2 2 0 0 1 2 2v12a2 2 0 0 1 -2 2h-1" />
</svg>
